dist/svg/static/dashboard-large.svg

<?xml version="1.0" encoding="UTF-8" standalone="no"?>
<svg width="48px" height="48px" viewBox="0 0 48 48" version="1.1" xmlns="http://www.w3.org/2000/svg" xmlns:xlink="http://www.w3.org/1999/xlink">
    <!-- Generator: sketchtool 46.2 (44496) - http://www.bohemiancoding.com/sketch -->
    <title>dashboard-large</title>
    <desc>Created with sketchtool.</desc>
    <defs></defs>
    <g id="icons-published" stroke="none" stroke-width="1" fill="none" fill-rule="evenodd">
        <g id="briefing" transform="translate(-1440.000000, -410.000000)"></g>
        <g id="dashboard-large" stroke="#000000">
            <path d="M3.5,3.5 L12.5,3.5 L12.5,12.5 L3.5,12.5 L3.5,3.5 Z M19.5,3.5 L28.5,3.5 L28.5,12.5 L19.5,12.5 L19.5,3.5 Z M35.5,3.5 L44.5,3.5 L44.5,12.5 L35.5,12.5 L35.5,3.5 Z M3.5,19.5 L12.5,19.5 L12.5,28.5 L3.5,28.5 L3.5,19.5 Z M19.5,19.5 L28.5,19.5 L28.5,28.5 L19.5,28.5 L19.5,19.5 Z M35.5,19.5 L44.5,19.5 L44.5,28.5 L35.5,28.5 L35.5,19.5 Z M3.5,35.5 L12.5,35.5 L12.5,44.5 L3.5,44.5 L3.5,35.5 Z M19.5,35.5 L28.5,35.5 L28.5,44.5 L19.5,44.5 L19.5,35.5 Z M35.5,35.5 L44.5,35.5 L44.5,44.5 L35.5,44.5 L35.5,35.5 Z" id="Shape"></path>
        </g>
    </g>
</svg>

<svg xmlns="http://www.w3.org/2000/svg" width="48" height="48" viewBox="0 0 48 48"><path d="M3.5 3.5h9v9h-9zm16 0h9v9h-9zm16 0h9v9h-9zm-32 16h9v9h-9zm16 0h9v9h-9zm16 0h9v9h-9zm-32 16h9v9h-9zm16 0h9v9h-9zm16 0h9v9h-9z" fill="none" stroke="currentColor" stroke-miterlimit="10"/></svg>
